X:20
T: Kandaaf, daat as eng lschteg Saach, S. 7
N: R0044
O: Luxemburg
S: D'Fraen um Kanddaaf an der aler Zeit, Luxemburg 1929]
R: Kindstaufe-Lied]
M: 4/4
L: 1/8
K: G
 | G3DG2DG | e2d2d4
f3edcBA | G2B2A4
G3DG2B2 | d2c2c4
e3dcBAB | G6z2
B4d4 | B2GBd4
e2d2e2dd | g6z2
d4B4 | d4B4 | A4B4 | G6z2

